!!!SOCIAL_FUNCTION:	songs for success in ball game
!!!PDT:	1956
!!!OTL: No_225_Ball_Game_Song_(h).krn
!!!LANG: Non-Tone
!!!LING_GROUP: Muskogean
!!!REG: Florida
**kern
*staff1
=1-
*clefF4
*k[b-]
*M3/4
(8A\L
8F\J)
8F\L
8F\J
16A\LK
8.A\J
=2
4F\
4F\
4r
=3||
*M2/4
16F\LK
8.F\J
16A\LK
8.A\J
=4||
*M3/8
4F\
8F\
=5||
*M3/4
16A\LK
8.A\J
16A\LK
8.B-\J
16B-\LK
8.B-\J
=6||
*M3/8
4.c\
=7||
*M2/4
8c\L
16A\L
16A\JJ
16A\LK
8.A\J
=8||
*M3/8
8F\L
8F\
16F\Jk
16r
=9||
*M2/4
8B-\L
8B-\J
16A\LL
16A\J
8A\J
=10
16.F\LL
32F\JK
8F\J
4r
=11||
*M3/4
16F\LK
8.F\J
16A\LK
8.A\J
8F\L
8F\J
=12
*M3/8
4c\
8r
=13
4A\
8r
==
*-
